dist/img/btn768.svg

<svg width="115" height="42" viewBox="0 0 115 42" fill="none" xmlns="http://www.w3.org/2000/svg">
<rect width="115" height="42" rx="6" fill="#3670C7"/>
<path d="M62.392 13.536V25H61.032V16.576C61.032 16.464 61.0347 16.344 61.04 16.216C61.0507 16.088 61.0613 15.9573 61.072 15.824L57.136 22.992C57.0133 23.232 56.8267 23.352 56.576 23.352H56.352C56.1013 23.352 55.9147 23.232 55.792 22.992L51.776 15.792C51.808 16.0747 51.824 16.336 51.824 16.576V25H50.464V13.536H51.608C51.7467 13.536 51.8533 13.5493 51.928 13.576C52.0027 13.6027 52.0747 13.6773 52.144 13.8L56.104 20.856C56.168 20.984 56.2293 21.1173 56.288 21.256C56.352 21.3947 56.4107 21.536 56.464 21.68C56.5173 21.536 56.5733 21.3947 56.632 21.256C56.6907 21.112 56.7547 20.976 56.824 20.848L60.712 13.8C60.776 13.6773 60.8453 13.6027 60.92 13.576C61 13.5493 61.1093 13.536 61.248 13.536H62.392ZM70.1614 20.064C70.1614 19.7333 70.1134 19.432 70.0174 19.16C69.9267 18.8827 69.7907 18.6453 69.6094 18.448C69.4334 18.2453 69.2174 18.0907 68.9614 17.984C68.7054 17.872 68.4147 17.816 68.0894 17.816C67.4067 17.816 66.8654 18.016 66.4654 18.416C66.0707 18.8107 65.8254 19.36 65.7294 20.064H70.1614ZM71.3134 23.864C71.1374 24.0773 70.9267 24.264 70.6814 24.424C70.436 24.5787 70.172 24.7067 69.8894 24.808C69.612 24.9093 69.324 24.984 69.0254 25.032C68.7267 25.0853 68.4307 25.112 68.1374 25.112C67.5774 25.112 67.06 25.0187 66.5854 24.832C66.116 24.64 65.708 24.3627 65.3614 24C65.02 23.632 64.7534 23.1787 64.5614 22.64C64.3694 22.1013 64.2734 21.4827 64.2734 20.784C64.2734 20.2187 64.3587 19.6907 64.5294 19.2C64.7054 18.7093 64.956 18.2853 65.2814 17.928C65.6067 17.5653 66.004 17.2827 66.4734 17.08C66.9427 16.872 67.4707 16.768 68.0574 16.768C68.5427 16.768 68.9907 16.8507 69.4014 17.016C69.8174 17.176 70.1747 17.4107 70.4734 17.72C70.7774 18.024 71.0147 18.4027 71.1854 18.856C71.356 19.304 71.4414 19.816 71.4414 20.392C71.4414 20.616 71.4174 20.7653 71.3694 20.84C71.3214 20.9147 71.2307 20.952 71.0974 20.952H65.6814C65.6974 21.464 65.7667 21.9093 65.8894 22.288C66.0174 22.6667 66.1934 22.984 66.4174 23.24C66.6414 23.4907 66.908 23.68 67.2174 23.808C67.5267 23.9307 67.8734 23.992 68.2574 23.992C68.6147 23.992 68.9214 23.952 69.1774 23.872C69.4387 23.7867 69.6627 23.696 69.8494 23.6C70.036 23.504 70.1907 23.416 70.3134 23.336C70.4414 23.2507 70.5507 23.208 70.6414 23.208C70.7587 23.208 70.8494 23.2533 70.9134 23.344L71.3134 23.864ZM79.9425 16.896V25H78.5105V21.208H74.6225V25H73.1905V16.896H74.6225V20.128H78.5105V16.896H79.9425ZM89.2301 24C89.9768 24 90.5341 23.7333 90.9021 23.2C91.2701 22.6613 91.4541 21.912 91.4541 20.952C91.4541 19.9867 91.2701 19.2347 90.9021 18.696C90.5341 18.1573 89.9768 17.888 89.2301 17.888C88.4835 17.888 87.9261 18.1573 87.5581 18.696C87.1901 19.2347 87.0061 19.9867 87.0061 20.952C87.0061 21.912 87.1901 22.6613 87.5581 23.2C87.9261 23.7333 88.4835 24 89.2301 24ZM85.6061 20.392C85.6541 19.8373 85.7688 19.336 85.9501 18.888C86.1368 18.44 86.3848 18.0587 86.6941 17.744C87.0088 17.4293 87.3768 17.1893 87.7981 17.024C88.2248 16.8533 88.7021 16.768 89.2301 16.768C89.7955 16.768 90.3048 16.8667 90.7581 17.064C91.2168 17.2613 91.6061 17.5413 91.9261 17.904C92.2461 18.2667 92.4915 18.7067 92.6621 19.224C92.8381 19.736 92.9261 20.3093 92.9261 20.944C92.9261 21.584 92.8381 22.16 92.6621 22.672C92.4861 23.184 92.2355 23.6213 91.9101 23.984C91.5848 24.3467 91.1955 24.6267 90.7421 24.824C90.2888 25.016 89.7848 25.112 89.2301 25.112C88.6915 25.112 88.2061 25.0267 87.7741 24.856C87.3475 24.6853 86.9795 24.4427 86.6701 24.128C86.3608 23.808 86.1128 23.4213 85.9261 22.968C85.7448 22.5147 85.6355 22.0027 85.5981 21.432H83.6381V25H82.2061V16.896H83.6381V20.392H85.6061Z" fill="white"/>
<path d="M24 26H30V24H24V26ZM24 14V16H42V14H24ZM24 21H36V19H24V21Z" fill="white"/>
</svg>

<svg width="115" height="42" fill="none" xmlns="http://www.w3.org/2000/svg"><rect width="115" height="42" rx="6" fill="#3670C7"/><path d="M62.392 13.536V25h-1.36v-8.424c0-.112.003-.232.008-.36l.032-.392-3.936 7.168c-.123.24-.31.36-.56.36h-.224c-.25 0-.437-.12-.56-.36l-4.016-7.2c.032.283.048.544.048.784V25h-1.36V13.536h1.144c.139 0 .245.013.32.04.075.027.147.101.216.224l3.96 7.056c.064.128.125.261.184.4.064.139.123.28.176.424.053-.144.11-.285.168-.424.059-.144.123-.28.192-.408l3.888-7.048c.064-.123.133-.197.208-.224.08-.027.19-.04.328-.04h1.144Zm7.77 6.528c0-.33-.049-.632-.145-.904a1.917 1.917 0 0 0-.408-.712 1.722 1.722 0 0 0-.648-.464 2.155 2.155 0 0 0-.872-.168c-.682 0-1.224.2-1.624.6-.394.395-.64.944-.736 1.648h4.432Zm1.151 3.8c-.176.213-.386.4-.632.56a4.03 4.03 0 0 1-.792.384 4.676 4.676 0 0 1-.864.224c-.298.053-.594.08-.888.08-.56 0-1.077-.093-1.552-.28A3.513 3.513 0 0 1 65.361 24a3.89 3.89 0 0 1-.8-1.36c-.192-.539-.288-1.157-.288-1.856 0-.565.086-1.093.256-1.584a3.74 3.74 0 0 1 .752-1.272 3.374 3.374 0 0 1 1.192-.848 3.87 3.87 0 0 1 1.584-.312c.486 0 .934.083 1.344.248.416.16.774.395 1.072.704.304.304.542.683.712 1.136.171.448.256.96.256 1.536 0 .224-.024.373-.072.448-.048.075-.138.112-.272.112h-5.416c.016.512.086.957.208 1.336.128.379.304.696.528.952.224.25.491.44.8.568a2.8 2.8 0 0 0 1.04.184c.358 0 .664-.04.92-.12a4.608 4.608 0 0 0 1.136-.536c.128-.085.238-.128.328-.128.118 0 .208.045.272.136l.4.52Zm8.63-6.968V25H78.51v-3.792h-3.888V25h-1.431v-8.104h1.431v3.232h3.888v-3.232h1.432ZM89.23 24c.747 0 1.304-.267 1.672-.8.368-.539.552-1.288.552-2.248 0-.965-.184-1.717-.552-2.256-.368-.539-.925-.808-1.672-.808-.746 0-1.304.27-1.672.808-.368.539-.552 1.29-.552 2.256 0 .96.184 1.71.552 2.248.368.533.925.8 1.672.8Zm-3.624-3.608a5.183 5.183 0 0 1 .344-1.504c.187-.448.435-.83.744-1.144a3.192 3.192 0 0 1 1.104-.72c.427-.17.904-.256 1.432-.256.566 0 1.075.099 1.528.296.459.197.848.477 1.168.84.32.363.566.803.736 1.32.176.512.264 1.085.264 1.72 0 .64-.088 1.216-.264 1.728-.176.512-.427.95-.752 1.312a3.34 3.34 0 0 1-1.168.84 3.84 3.84 0 0 1-1.512.288 3.934 3.934 0 0 1-1.456-.256 3.19 3.19 0 0 1-1.104-.728 3.645 3.645 0 0 1-.744-1.16 5 5 0 0 1-.328-1.536h-1.96V25h-1.432v-8.104h1.432v3.496h1.968ZM24 26h6v-2h-6v2Zm0-12v2h18v-2H24Zm0 7h12v-2H24v2Z" fill="#fff"/></svg>
